html/app/assets/img/ui/remove-red.svg

<svg fill="none" height="18" viewBox="0 0 18 18" width="18" xmlns="http://www.w3.org/2000/svg"><path clip-rule="evenodd" d="m9 2c-3.86599 0-7 3.13401-7 7 0 3.866 3.13401 7 7 7 3.866 0 7-3.134 7-7 0-3.86599-3.134-7-7-7zm-9 7c0-4.97056 4.02944-9 9-9 4.9706 0 9 4.02944 9 9 0 4.9706-4.0294 9-9 9-4.97056 0-9-4.0294-9-9zm5.89289-3.10711c.39053-.39052 1.02369-.39052 1.41422 0l1.69289 1.6929 1.6929-1.6929c.3905-.39052 1.0237-.39052 1.4142 0 .3905.39053.3905 1.02369 0 1.41422l-1.6929 1.69289 1.6929 1.6929c.3905.3905.3905 1.0237 0 1.4142s-1.0237.3905-1.4142 0l-1.6929-1.6929-1.69289 1.6929c-.39053.3905-1.02369.3905-1.41422 0-.39052-.3905-.39052-1.0237 0-1.4142l1.6929-1.6929-1.6929-1.69289c-.39052-.39053-.39052-1.02369 0-1.41422z" fill="#ea395b" fill-rule="evenodd"/></svg>

<svg width="18" height="18" viewBox="0 0 18 18" fill="none" xmlns="http://www.w3.org/2000/svg">
<path fill-rule="evenodd" clip-rule="evenodd" d="M9 2C5.13401 2 2 5.13401 2 9C2 12.866 5.13401 16 9 16C12.866 16 16 12.866 16 9C16 5.13401 12.866 2 9 2ZM0 9C0 4.02944 4.02944 0 9 0C13.9706 0 18 4.02944 18 9C18 13.9706 13.9706 18 9 18C4.02944 18 0 13.9706 0 9ZM5.89289 5.89289C6.28342 5.50237 6.91658 5.50237 7.30711 5.89289L9 7.58579L10.6929 5.89289C11.0834 5.50237 11.7166 5.50237 12.1071 5.89289C12.4976 6.28342 12.4976 6.91658 12.1071 7.30711L10.4142 9L12.1071 10.6929C12.4976 11.0834 12.4976 11.7166 12.1071 12.1071C11.7166 12.4976 11.0834 12.4976 10.6929 12.1071L9 10.4142L7.30711 12.1071C6.91658 12.4976 6.28342 12.4976 5.89289 12.1071C5.50237 11.7166 5.50237 11.0834 5.89289 10.6929L7.58579 9L5.89289 7.30711C5.50237 6.91658 5.50237 6.28342 5.89289 5.89289Z" fill="#EA395B"/>
</svg>
